build/system/ActionsSolid.svg

<svg xmlns="http://www.w3.org/2000/svg" fill="none" viewBox="0 0 24 24" focusable="false"><path d="M0 0H24V24H0z"/><path fill="#74767B" fill-rule="evenodd" d="M11.9999 3.56025C7.33883 3.56025 3.56025 7.33883 3.56025 11.9999C3.56025 12.3589 3.26924 12.6499 2.91025 12.6499C2.55127 12.6499 2.26025 12.3589 2.26025 11.9999C2.26025 6.62086 6.62086 2.26025 11.9999 2.26025C17.379 2.26025 21.7396 6.62086 21.7396 11.9999C21.7396 17.379 17.379 21.7396 11.9999 21.7396C11.641 21.7396 11.3499 21.4486 11.3499 21.0896C11.3499 20.7306 11.641 20.4396 11.9999 20.4396C16.6611 20.4396 20.4396 16.6611 20.4396 11.9999C20.4396 7.33883 16.6611 3.56025 11.9999 3.56025ZM11.9999 7.11445C9.7949 7.11445 7.92948 8.5758 7.32253 10.5843C7.21868 10.928 6.85593 11.1224 6.51229 11.0185C6.16865 10.9147 5.97426 10.5519 6.0781 10.2083C6.84622 7.66642 9.20596 5.81445 11.9999 5.81445C15.4161 5.81445 18.1854 8.58379 18.1854 11.9999C18.1854 14.7845 16.3459 17.1377 13.8173 17.9139C13.4741 18.0193 13.1105 17.8265 13.0052 17.4833C12.8999 17.1401 13.0927 16.7765 13.4358 16.6712C15.4339 16.0578 16.8854 14.1975 16.8854 11.9999C16.8854 9.30176 14.6981 7.11445 11.9999 7.11445ZM12.1565 10.1314C13.2809 9.64161 14.4231 10.7838 13.9333 11.9082L10.2387 20.3899C9.69849 21.63 7.87295 21.3934 7.66678 20.0566L7.21702 17.1403C7.19375 16.9894 7.07535 16.871 6.92446 16.8477L4.00817 16.398C2.67133 16.1918 2.43472 14.3662 3.67481 13.8261L12.1565 10.1314Z"/></svg>

<svg xmlns="http://www.w3.org/2000/svg" fill="none" viewBox="0 0 24 24" focusable="false"><path fill="#74767B" fill-rule="evenodd" d="M3.56 11.99c0-4.66 3.77-8.43 8.44-8.43 4.66 0 8.43 3.77 8.43 8.43 0 4.67-3.77 8.44-8.43 8.44-.36 0-.65.3-.65.65 0 .36.29.65.65.65 5.37 0 9.73-4.36 9.73-9.74 0-5.37-4.36-9.73-9.73-9.73-5.38 0-9.74 4.36-9.74 9.73 0 .36.29.65.65.65.35 0 .65-.29.65-.65M12 7.11c-2.21 0-4.08 1.46-4.68 3.47a.65.65 0 0 1-.81.43.647.647 0 0 1-.44-.81A6.19 6.19 0 0 1 12 5.81c3.41 0 6.18 2.77 6.18 6.18 0 2.79-1.84 5.14-4.37 5.92-.34.1-.7-.09-.81-.43s.09-.71.43-.81a4.9 4.9 0 0 0 3.45-4.68c0-2.69-2.19-4.88-4.88-4.88m.15 3.02c1.13-.49 2.27.65 1.78 1.77l-3.7 8.48c-.54 1.25-2.36 1.01-2.57-.33l-.45-2.91a.35.35 0 0 0-.29-.3L4 16.39c-1.33-.2-1.57-2.03-.33-2.57z"/></svg>
